X: 1
T:Gan Ainm
M:6/8
L:1/8
K:G Major
f|gfg a2g|f2A ABc|efe d2c|B2G GBd|!
gfg a2g|f2A ABc|ded cBA|G3 G2:|!
D|GBd g3|f2d c3|ded c2A|e2d B3|!
GBd g3|f2d c2B|ABc def|g3 g2:|!
f|g2f g2a|b2g d3|b3 bag|f2g afd|!
g2f g2a|b2g d2B|ABc def|g3 g2:|!
